images/about_icon-5.svg

<svg width="46" height="46" viewBox="0 0 46 46" fill="none" xmlns="http://www.w3.org/2000/svg">
<rect opacity="0.1" width="46" height="46" rx="5" fill="#FE753F"/>
<path d="M16.5468 21.322V22.8961H22.2685V16H15.4974C14.6728 16 13.9982 16.6746 13.9982 17.4992V19.3481H14.5479C15.6723 19.3481 16.5468 20.2226 16.5468 21.322Z" fill="#FE753F"/>
<path d="M29.1896 21.322C29.1896 20.2226 30.0891 19.3481 31.1635 19.3481H31.7132V17.4992C31.7132 16.6746 31.0386 16 30.214 16H23.4679V22.8961H29.1896V21.322Z" fill="#FE753F"/>
<path d="M32.7627 20.5225H31.1636C30.7138 20.5225 30.364 20.8723 30.364 21.322V23.8456C30.364 23.9955 30.2641 24.0954 30.1142 24.0954H15.6224C15.4725 24.0954 15.3725 23.9955 15.3725 23.8456V21.322C15.3725 20.8723 15.0227 20.5225 14.573 20.5225H12.9739C11.8995 20.5225 11 21.397 11 22.4963C11 23.5707 11.8745 24.4702 12.9739 24.4702V26.4691C12.9739 27.2686 13.5985 27.9183 14.3731 27.9433V28.7428C14.3731 29.0676 14.6479 29.3425 14.9727 29.3425H16.347C16.6718 29.3425 16.9466 29.0676 16.9466 28.7428V27.9433H28.8399V28.7428C28.8399 29.0676 29.1147 29.3425 29.4395 29.3425H30.8138C31.1386 29.3425 31.4134 29.0676 31.4134 28.7428V27.9183C32.188 27.8683 32.8126 27.2436 32.8126 26.4441V24.4452C33.887 24.4452 34.7865 23.5707 34.7865 22.4714C34.7365 21.397 33.862 20.5225 32.7627 20.5225Z" fill="#FE753F"/>
</svg>

<svg width="46" height="46" fill="none" xmlns="http://www.w3.org/2000/svg"><rect opacity=".1" width="46" height="46" rx="5" fill="#FE753F"/><path d="M16.547 21.322v1.574h5.721V16h-6.77c-.825 0-1.5.675-1.5 1.5v1.848h.55c1.124 0 1.999.875 1.999 1.974zm12.643 0c0-1.1.9-1.974 1.973-1.974h.55V17.5c0-.824-.674-1.499-1.499-1.499h-6.746v6.896h5.722v-1.574z" fill="#FE753F"/><path d="M32.763 20.523h-1.6c-.45 0-.799.35-.799.799v2.524c0 .15-.1.25-.25.25H15.622c-.15 0-.25-.1-.25-.25v-2.524c0-.45-.35-.8-.799-.8h-1.6A1.978 1.978 0 0011 22.497c0 1.075.874 1.974 1.974 1.974v2c0 .799.624 1.448 1.4 1.473v.8c0 .325.274.6.599.6h1.374c.325 0 .6-.275.6-.6v-.8H28.84v.8c0 .325.275.6.6.6h1.374c.325 0 .6-.275.6-.6v-.825a1.48 1.48 0 001.399-1.474v-1.999a1.978 1.978 0 001.973-1.974 2.034 2.034 0 00-2.023-1.948z" fill="#FE753F"/></svg>
